X: 1
T: the Bonnie Lass of Fyvie
R: march
Z: 2011 John Chambers <jc:trillian.mit.edu>
M: C|
L: 1/8
K: A
E2 |\
"A"A4 A3B | A6 E2 | "A"A3G A2B2 | A6 E2 |\
"A"A4 c3d | "F#m"e4 d3c | "E7"B4 E3E | E6 |]
d2 |\
"A"c3B c2d2 | e4 E3E | "D"A3B A2F2 | D4 C3D |\
"A"E4 A3A | "E7"B2A2 G2F2 | "E7"E4 G4 | "A"A6 |]
